files/opera-gx.svg

<svg clip-rule="evenodd" fill-rule="evenodd" stroke-linejoin="round" stroke-miterlimit="2" viewBox="0 0 560 400" xmlns="http://www.w3.org/2000/svg"><g transform="matrix(.24 0 0 .24 160 96.7659)"><path d="m687.678 72.323c-51.659-46.446-118.484-72.038-188.151-72.038h-.949c-156.398 0-283.412 127.014-283.412 283.411 0 151.659 118.483 276.304 270.142 283.413 4.266 0 9.005.474 13.27.474 69.668 0 136.967-25.593 189.1-72.038 60.188-53.555 94.786-130.806 94.786-211.374 0-81.043-34.598-157.821-94.786-211.848zm-200.949 467.771c-137.44-6.161-244.549-118.957-244.549-256.398 0-141.231 115.166-256.871 256.872-256.871h.948c22.274 0 44.55 3.317 65.877 9.005-64.455 1.421-124.645 33.175-165.877 86.729-32.701 38.863-52.606 94.786-53.554 154.502v12.796c1.421 59.242 20.853 115.166 53.554 154.029 41.706 54.029 101.896 85.782 166.351 87.204-26.068 7.583-53.08 10.426-79.622 9.004zm183.886-65.402c-30.332 19.905-64.927 30.331-100 30.331-57.819 0-112.322-27.962-150.236-76.777l-.473-.474c-28.911-34.123-45.972-84.36-47.394-137.44v-12.323c1.422-53.081 18.483-103.318 47.867-137.915 37.914-48.814 92.417-76.777 150.236-76.777 35.073 0 69.668 10.428 100 30.332 54.03 48.815 84.834 118.009 84.834 190.522 0 72.038-30.804 141.706-84.834 190.521z" fill="#ee2750" fill-rule="nonzero"/><path d="m552.133 103.128c51.184 32.701 86.728 100.474 86.728 178.673s-35.544 145.971-86.728 178.673c65.402-5.213 117.535-83.412 117.535-178.673s-52.133-173.46-117.535-178.673z" fill="#ee2750" fill-rule="nonzero"/><g fill="#030404"><path d="m998.104 826.351h-18.958l-62.084-73.935-62.085 73.935h-18.958l71.564-85.309-72.986-87.204h18.958l63.98 76.305 63.508-76.305h18.957l-73.46 87.204z"/><path d="m822.274 747.204h-67.297l11.847-14.218h70.143v7.109c0 47.867-38.863 86.255-86.256 86.255-47.394 0-86.256-38.862-86.256-86.255 0-47.394 38.862-86.256 86.256-86.256 23.696 0 45.497 9.953 61.138 25.593l-9.48 10.9c-13.269-13.744-31.279-22.275-51.658-22.275-39.811 0-72.039 32.227-72.039 72.038 0 39.81 32.228 72.038 72.039 72.038 37.44 0 67.772-28.436 71.563-64.929z"/><path d="m233.649 811.185c-24.17 0-44.076-21.802-44.076-48.341 0-26.54 19.906-48.342 44.076-48.342 24.171 0 44.076 21.802 44.076 48.342 0 26.539-19.905 48.341-44.076 48.341zm0-109.953c-16.587 0-31.753 7.583-41.707 20.853v-18.009h-13.743v155.923h13.743v-55.923c9.954 13.27 25.12 20.853 41.707 20.853 31.753 0 57.347-27.963 57.347-62.085 0-34.123-25.594-61.612-57.347-61.612z" fill-rule="nonzero"/><path d="m82.464 814.977c-38.389 0-69.194-32.702-69.194-73.46 0-40.759 30.805-73.46 69.194-73.46 38.39 0 69.194 33.175 69.194 73.46 0 40.284-30.804 73.46-69.194 73.46zm0-159.716c-45.498 0-82.464 38.861-82.464 86.256 0 47.393 36.966 86.255 82.464 86.255s82.464-38.862 82.464-86.255c0-47.395-36.966-86.256-82.464-86.256z" fill-rule="nonzero"/><path d="m481.517 701.706c-4.74 0-9.005 1.422-13.271 3.792-8.53 4.266-15.166 11.848-18.483 20.379l-.474.474v-21.801h-13.745v117.06h13.745v-61.61c0-7.583 1.421-15.166 4.266-22.274 2.369-6.163 6.634-11.849 11.374-16.588 5.688-5.213 13.743-7.583 21.326-6.161l3.791.948c.95-3.792 2.845-9.005 3.32-12.797-3.792-.947-7.583-1.897-11.849-1.422z" fill-rule="nonzero"/><path d="m361.138 714.503c24.17 0 40.758 16.112 43.602 40.758h-87.205c3.318-22.749 21.328-40.758 43.603-40.758zm0-13.272c-31.754 0-57.347 27.962-57.347 62.085 0 34.124 25.593 62.086 57.347 62.086 22.748-.473 42.653-14.217 51.658-34.596l-11.847-7.11c-6.636 16.588-22.276 27.489-39.811 27.963-22.749 0-41.706-19.431-44.076-44.076h101.422v-4.267c0-36.492-23.697-62.085-57.346-62.085z" fill-rule="nonzero"/><path d="m548.341 811.185c-24.17 0-44.075-21.802-44.075-48.341 0-26.54 19.905-48.342 44.075-48.342 24.171 0 44.076 21.802 44.076 48.342 0 26.539-19.905 48.341-44.076 48.341zm41.706-107.582v18.008c-9.952-13.269-25.118-20.853-41.706-20.853-31.753 0-57.346 27.963-57.346 62.086 0 34.122 25.593 62.085 57.346 62.085 16.588 0 31.754-7.583 41.706-20.853v17.535h13.744v-118.008z" fill-rule="nonzero"/></g></g></svg>

<?xml version="1.0" encoding="UTF-8" standalone="no"?>
<!DOCTYPE svg PUBLIC "-//W3C//DTD SVG 1.1//EN" "http://www.w3.org/Graphics/SVG/1.1/DTD/svg11.dtd">
<svg width="100%" height="100%" viewBox="0 0 560 400" version="1.1" xmlns="http://www.w3.org/2000/svg" xmlns:xlink="http://www.w3.org/1999/xlink" xml:space="preserve" xmlns:serif="http://www.serif.com/" style="fill-rule:evenodd;clip-rule:evenodd;stroke-linejoin:round;stroke-miterlimit:2;">
    <g transform="matrix(0.24,0,0,0.24,160,96.7659)">
        <path d="M687.678,72.323C636.019,25.877 569.194,0.285 499.527,0.285L498.578,0.285C342.18,0.285 215.166,127.299 215.166,283.696C215.166,435.355 333.649,560 485.308,567.109C489.574,567.109 494.313,567.583 498.578,567.583C568.246,567.583 635.545,541.99 687.678,495.545C747.866,441.99 782.464,364.739 782.464,284.171C782.464,203.128 747.866,126.35 687.678,72.323ZM486.729,540.094C349.289,533.933 242.18,421.137 242.18,283.696C242.18,142.465 357.346,26.825 499.052,26.825L500,26.825C522.274,26.825 544.55,30.142 565.877,35.83C501.422,37.251 441.232,69.005 400,122.559C367.299,161.422 347.394,217.345 346.446,277.061L346.446,289.857C347.867,349.099 367.299,405.023 400,443.886C441.706,497.915 501.896,529.668 566.351,531.09C540.283,538.673 513.271,541.516 486.729,540.094ZM670.615,474.692C640.283,494.597 605.688,505.023 570.615,505.023C512.796,505.023 458.293,477.061 420.379,428.246L419.906,427.772C390.995,393.649 373.934,343.412 372.512,290.332L372.512,278.009C373.934,224.928 390.995,174.691 420.379,140.094C458.293,91.28 512.796,63.317 570.615,63.317C605.688,63.317 640.283,73.745 670.615,93.649C724.645,142.464 755.449,211.658 755.449,284.171C755.449,356.209 724.645,425.877 670.615,474.692Z" style="fill:rgb(238,39,80);fill-rule:nonzero;"/>
        <path d="M552.133,103.128C603.317,135.829 638.861,203.602 638.861,281.801C638.861,360 603.317,427.772 552.133,460.474C617.535,455.261 669.668,377.062 669.668,281.801C669.668,186.54 617.535,108.341 552.133,103.128Z" style="fill:rgb(238,39,80);fill-rule:nonzero;"/>
        <path d="M998.104,826.351L979.146,826.351L917.062,752.416L854.977,826.351L836.019,826.351L907.583,741.042L834.597,653.838L853.555,653.838L917.535,730.143L981.043,653.838L1000,653.838L926.54,741.042L998.104,826.351Z" style="fill:rgb(3,4,4);"/>
        <path d="M822.274,747.204L754.977,747.204L766.824,732.986L836.967,732.986L836.967,740.095C836.967,787.962 798.104,826.35 750.711,826.35C703.317,826.35 664.455,787.488 664.455,740.095C664.455,692.701 703.317,653.839 750.711,653.839C774.407,653.839 796.208,663.792 811.849,679.432L802.369,690.332C789.1,676.588 771.09,668.057 750.711,668.057C710.9,668.057 678.672,700.284 678.672,740.095C678.672,779.905 710.9,812.133 750.711,812.133C788.151,812.133 818.483,783.697 822.274,747.204Z" style="fill:rgb(3,4,4);"/>
        <path d="M233.649,811.185C209.479,811.185 189.573,789.383 189.573,762.844C189.573,736.304 209.479,714.502 233.649,714.502C257.82,714.502 277.725,736.304 277.725,762.844C277.725,789.383 257.82,811.185 233.649,811.185ZM233.649,701.232C217.062,701.232 201.896,708.815 191.942,722.085L191.942,704.076L178.199,704.076L178.199,859.999L191.942,859.999L191.942,804.076C201.896,817.346 217.062,824.929 233.649,824.929C265.402,824.929 290.996,796.966 290.996,762.844C290.996,728.721 265.402,701.232 233.649,701.232Z" style="fill:rgb(3,4,4);fill-rule:nonzero;"/>
        <path d="M82.464,814.977C44.075,814.977 13.27,782.275 13.27,741.517C13.27,700.758 44.075,668.057 82.464,668.057C120.854,668.057 151.658,701.232 151.658,741.517C151.658,781.801 120.854,814.977 82.464,814.977ZM82.464,655.261C36.966,655.261 0,694.122 0,741.517C0,788.91 36.966,827.772 82.464,827.772C127.962,827.772 164.928,788.91 164.928,741.517C164.928,694.122 127.962,655.261 82.464,655.261Z" style="fill:rgb(3,4,4);fill-rule:nonzero;"/>
        <path d="M481.517,701.706C476.777,701.706 472.512,703.128 468.246,705.498C459.716,709.764 453.08,717.346 449.763,725.877L449.289,726.351L449.289,704.55L435.544,704.55L435.544,821.61L449.289,821.61L449.289,760C449.289,752.417 450.71,744.834 453.555,737.726C455.924,731.563 460.189,725.877 464.929,721.138C470.617,715.925 478.672,713.555 486.255,714.977L490.046,715.925C490.996,712.133 492.891,706.92 493.366,703.128C489.574,702.181 485.783,701.231 481.517,701.706Z" style="fill:rgb(3,4,4);fill-rule:nonzero;"/>
        <path d="M361.138,714.503C385.308,714.503 401.896,730.615 404.74,755.261L317.535,755.261C320.853,732.512 338.863,714.503 361.138,714.503ZM361.138,701.231C329.384,701.231 303.791,729.193 303.791,763.316C303.791,797.44 329.384,825.402 361.138,825.402C383.886,824.929 403.791,811.185 412.796,790.806L400.949,783.696C394.313,800.284 378.673,811.185 361.138,811.659C338.389,811.659 319.432,792.228 317.062,767.583L418.484,767.583L418.484,763.316C418.484,726.824 394.787,701.231 361.138,701.231Z" style="fill:rgb(3,4,4);fill-rule:nonzero;"/>
        <path d="M548.341,811.185C524.171,811.185 504.266,789.383 504.266,762.844C504.266,736.304 524.171,714.502 548.341,714.502C572.512,714.502 592.417,736.304 592.417,762.844C592.417,789.383 572.512,811.185 548.341,811.185ZM590.047,703.603L590.047,721.611C580.095,708.342 564.929,700.758 548.341,700.758C516.588,700.758 490.995,728.721 490.995,762.844C490.995,796.966 516.588,824.929 548.341,824.929C564.929,824.929 580.095,817.346 590.047,804.076L590.047,821.611L603.791,821.611L603.791,703.603L590.047,703.603Z" style="fill:rgb(3,4,4);fill-rule:nonzero;"/>
    </g>
</svg>
